dist/svg/low.svg

<!-- Generated by Trend Micro Style Portal -->
<svg version="1.1" xmlns="http://www.w3.org/2000/svg" width="16" height="16" viewBox="0 0 16 16">
  <title>low</title>
  <path fill="rgb(34,34,34)" d="M8 0c-4.418 0-8 3.582-8 8s3.582 8 8 8c4.418 0 8-3.582 8-8v0c0-4.418-3.582-8-8-8v0zM8 13l-4-4h3v-5h2v5h3z"></path>
</svg>

<svg width="16" height="16" viewBox="0 0 16 16" fill="rgb(34, 34, 34)" xmlns="http://www.w3.org/2000/svg"><title>low</title><path d="M8 0C3.582 0 0 3.582 0 8C0 12.418 3.582 16 8 16C12.418 16 16 12.418 16 8C16 3.582 12.418 0 8 0ZM8 13L4 9H7V4H9V9H12L8 13Z" fill="rgb(34, 34, 34)" fill-opacity="1.00"/></svg>
